X: 2291
T: Back To Belfast
R: reel
M: 4/4
K: Ddorian
DAAD (3ccc dA-|AGAG EcGE|DAAD (3ccc dA-|AG A/B/c d2z2|
DAAD (3ccc dA-|AGAG EcGE|D3A GEcE-|EG GE D2AG:|
|:dcAA- AGAc|ecAA- AGAc|dcAA- AGAc|~G2Ec ~G2Ec|
dcAA- AGAc|ecAA- AGAc|d2dA GEcE-|EG GE D2AG:|

